src/view/frontend/web/svg/heroicons/solid/ticket.svg

<svg viewBox="0 0 20 20" fill="currentColor" xmlns="http://www.w3.org/2000/svg">

<path d="M2 6C2 4.89543 2.89543 4 4 4H16C17.1046 4 18 4.89543 18 6V8C16.8954 8 16 8.89543 16 10C16 11.1046 16.8954 12 18 12V14C18 15.1046 17.1046 16 16 16H4C2.89543 16 2 15.1046 2 14V12C3.10457 12 4 11.1046 4 10C4 8.89543 3.10457 8 2 8V6Z" />
</svg>

<svg xmlns="http://www.w3.org/2000/svg" fill="currentColor" viewBox="0 0 20 20"><path d="M2 6a2 2 0 0 1 2-2h12a2 2 0 0 1 2 2v2a2 2 0 1 0 0 4v2a2 2 0 0 1-2 2H4a2 2 0 0 1-2-2v-2a2 2 0 1 0 0-4V6Z"/></svg>
